logo/tsuru.svg

<?xml version="1.0" encoding="UTF-8" standalone="no"?>
<svg width="256px" height="193px" viewBox="0 0 256 193" version="1.1" xmlns="http://www.w3.org/2000/svg" xmlns:xlink="http://www.w3.org/1999/xlink" preserveAspectRatio="xMidYMid">
    <g>
        <path d="M225.37799,32.2551834 C224.969697,31.84689 224.561404,31.84689 224.15311,32.2551834 L118.813397,136.370016 C118.405104,136.778309 118.405104,137.186603 118.813397,137.594896 L139.22807,163.317384 L135.553429,191.897927 C135.553429,192.30622 135.553429,192.714514 135.961722,192.714514 L136.370016,192.714514 C136.778309,192.714514 136.778309,192.714514 137.186603,192.30622 L225.786284,33.0717703 C226.194577,33.0717703 225.786284,32.2551834 225.37799,32.2551834 L225.37799,32.2551834 Z M256,69.0015949 L235.177033,32.2551834 C235.177033,31.84689 234.76874,31.84689 234.360447,31.84689 C233.952153,31.84689 233.952153,31.84689 233.54386,32.2551834 L219.661882,57.569378 L219.661882,58.3859649 C219.661882,58.7942584 220.070175,58.7942584 220.070175,58.7942584 L254.77512,69.8181818 L255.183413,69.8181818 C255.591707,69.8181818 255.591707,69.8181818 256,69.4098884 L256,69.0015949 L256,69.0015949 Z M131.878788,164.950558 L131.878788,164.133971 L1.22488038,0 C1.22488038,0 -1.42108547e-14,0.408293461 -1.42108547e-14,0.816586922 L13.4736842,138.00319 L3.67464115,192.714514 L127.795853,192.714514 C128.204147,193.122807 131.878788,164.950558 131.878788,164.950558 Z" fill="#33DD99"></path>
    </g>
</svg>

<svg viewBox="0 0 256 193" xmlns="http://www.w3.org/2000/svg"><path fill="#3D9" d="M225.37 32.25c-.41-.41-.82-.41-1.23 0L118.8 136.36c-.41.4-.41.81 0 1.22l20.41 25.72 -3.68 28.58c0 .4 0 .81.4.81h.4c.4 0 .4 0 .81-.41l88.59-159.24c.4 0 0-.82-.41-.82v0Zm30.62 36.74l-20.83-36.75c0-.41-.41-.41-.82-.41s-.41 0-.82.4l-13.89 25.31v.81c0 .4.4.4.4.4l34.7 11.02h.4c.4 0 .4 0 .81-.41v-.41 0Zm-124.13 95.94v-.82L1.2-.03c-.001 0-1.23.4-1.23.81l13.47 137.18 -9.8 54.71h124.12c.4.4 4.08-27.77 4.08-27.77Z"/></svg>
